X:138
T:Paper Moon
C:
N:Arr. by Gregory J. Thomas
L:1/8
Q:1/4=160
M:4/4
K:C
"C6"zC zC "C#dim7"GG zG | "Dm7"(3FGF E2 "G9"D4 | "Dm7"z2 GG "G9"FE DC | "C6"E2 zD zC z2 | 
"C9"CB, CD E^D EF | "F6"AG FE "F#dim7"DC B,G, | "G9"GA GF EC G,B, | "C6"DC EB "G9"cC z2 | 
"C6"z2 cc "C#dim7"gg zg | "Dm7"f2 e2 "G9"d4 | "Dm7"zg zg fe d^d | "C6"eg ed c4 | 
"C9"z2 cc gg z^g | "F6"a2 fd "F#dim7"z3c | "G7"B_B =Bc ^ca gB | "C6"dc z4 c2 | 
"F6"d^c d2 "F#dim7"^d=d ^d2 | "C6"eg ed "A7"c2 c2 | "Dm7"e^d e2 "G9"eg ed | "C6"c_B AG2^F G2 | 
"F6"zd z2 "F#dim7"^d4 | "C6"ef ^fg "F9"z4 | "Em7"z2 (3^d=dc "A7"dc A^G | "Dm7"G2 Ac4z | 
"C6"zC zC "C#dim7"GG zG | "Dm7"(3FGF E2 "G9"D4 | "Dm7"z2 GG "G9"FE DC | "C6"E2 zD zC z2 | 
"C9"CB, CD E^D EF | "F6"AG FE "F#dim7"DC B,G, | "G9"GA GF EC G,B, | "C6"C2 B,C z4 | 
z4 ^FG FE | FG FE DE FG | AF DC G^F =F^D | E2 D2 C2 B,2 | _B,8 | z4 ^D^F B_B | 
AF D^D z^F BA | GE F^F G4 | z2 E2 ^FG z2 | z2 E2 FG zE | F2 A2 _B=B dA | cG7/1 | 
z4 fe ^d=d | zc AF _B=B d^c | cA FD _B=B d^c | cG EC D2 C2 | FG AG ^F^D =DC | 
B,D B,C ^C_B, G,^G, | A,C G,_B, =B,D ^CB, | CA, z2 A,4 | z2 GG ^fG3 | z2 EE eE3 | 
z4 (3C2A,2 C2 | ^G,A, z2 =G,4 | z4 z^c ze | dA c_B =Ba z^f | gf A^c e^d =dc | 
cG7/1 | z2 (3G_Bd ^c^f _b^c' | d'c' af ^fb f^d | d2 a2 _b^d ^c=d | zB Gc z4 | 
zC zC GG zG | (3FGF E2 D4 | z2 GG FE DC | E2 zD zC z2 | CB, CD E^D EF | AG FE DC B,G, | 
GA GF EC G,B, | DC EB cC z2 | z2 cc gg zg | f2 e2 d4 | zg zg fe d^d | eg ed c4 | 
z2 cc gg z^g | a2 fd z3c | B_B =Bc ^ca gB | dc z4 c2 | d^c d2 ^d=d ^d2 | eg ed c2 c2 | 
e^d e2 eg ed | c_B AG2^F G2 | zd z2 ^d4 | ef ^fg z4 | z2 (3^d=dc dc A^G | G2 Ac4z | 
zC zC GG zG | (3FGF E2 D4 | z2 GG FE DC | E2 zD zC z2 | CB, CD E^D EF | AG FE DC B,G, | 
GA GF EC G,B, | C2 B,C z4 | 


